X:95
T: Verschlafener Jaeger
N: Q0152L
O: Mitteleuropa, Deutschland (BRD) , Nordrhein - Westfalen, Gummersbach,
N: Die letzten beiden Zeilen = Refrain , z.T. auf sinnfreie Silben.
R: Ballade, Verfuehrung, Versagen, Spott
M: 6/8
L: 1/8
K: C
G | G2GGGG | G3E2
G | c2ccBc | e2dcB
A | G2GGAB | czee2
c | d2dBAB | c2z3
G | GEGc2c | cGce2
e | d2dBAB | c2z3

@@@ Tune index: 1698
